X:1
T:And Can It Be That I Should Gain
T:And Can It Be (Vocals and Piano)
T:Arranged by Libon27
T:Thomas Campbell, 1825
T:Charles Wesley, 1738
C:Thomas Campbell, 1825
Z:Charles Wesley, 1738
%%score [ ( 1 2 ) ( 3 4 ) ] { ( 5 7 9 ) | ( 6 8 ) }
L:1/8
M:4/4
K:G
V:1 treble nm="S A"
V:2 treble 
V:3 bass nm="T B"
V:4 bass 
V:5 treble nm="Piano" snm="Pno."
V:7 treble 
V:9 treble 
V:6 bass 
V:8 bass 
V:1
 z8 | z8 | z8 | z8 | z8 | z8 | z8 | z8 | z8 | [B,G]4 [DG]3 [DA] | [DB]6 [Gd]2 | (c2 E2) (F2 A2) | %12
w: |||||||||And can it|be that|I * should *|
 [B,G]6 [B,D]2 | (E2 A2) (F2 D2) | G4 (A2 G2) | [DF]4 [^CE]4 | D8 | D4 [DF]2 [DG]2 | (G4 F2) D2 | %19
w: gain an|in- * t'rest *|in the *|Sav- iour's|blood?|Died He for|me, * who|
 [DG]4 [DB]4 | [DA]6 D2 | ([CE]2 [EG]4) [CE]2 | (D2 G4) A2 | [DB]4 [CA]4 | [B,G]8 | %25
w: caused His|pain? For|me * who|Him * to|death pur-|sued?|
 [DB]4 [DA]2 D2 | G4 (A2 B2) | (c2 E2) (A2 G2) | (F3 E) D2 D2 | (B,2 D2 G2) D2 | (E2 G2 c2) E2 | %31
w: A- maz- ing|love! How *|can * it *|be * * that|thou, * * my|God, * * shoudst|
 (F2 A2 d2) F2 | G6 G2 | B4 B4 | A6 A2 | c4 c4 | B6 B2 | e4 e4 | d4 (c2 A2) | [DG]4 [CF]4 | %40
w: die * * for|me? A-|maz- ing|love! How|can it|be that|thou, my|God, shoudst *|die for|
 [B,G]8 | [B,G]4 [DG]3 [DA] | [DB]6 [Gd]2 | (c2 E2) (F2 A2) | [B,G]6 [B,D]2 | (E2 A2) (F2 D2) | %46
w: me?|He left His|Fa- ther's|throne * a- *|bove so|free * so *|
 G4 (A2 G2) | [DF]4 [^CE]4 | D8 | D4 [DF]2 [DG]2 | (G4 F2) D2 | [DG]4 [DB]4 | [DA]6 D2 | %53
w: in- fi- *|nite His|grace!|hum- bled him-|self * so|great His|love and|
 ([CE]2 [EG]4) [CE]2 | (D2 G4) A2 | [DB]4 [CA]4 | [B,G]8 | [DB]4 [DA]2 D2 | G4 (A2 B2) | %59
w: bled * for|A- * dam's|hel- pless|race.|'Tis mer- cy|all, im- *|
 (c2 E2) (A2 G2) | (F3 E) D2 D2 | (B,2 D2 G2) D2 | (E2 G2 c2) E2 | (F2 A2 d2) F2 | G6 G2 | B4 B4 | %66
w: mense * and *|free; * * for|O * * my|God, * * it|found * * out|me. A-|maz- ing|
 A6 A2 | c4 c4 | B6 B2 | e4 e4 | d4 ((c2 A2)) | [DG]4 [CF]4 | [B,G]8 | [B,G]4 [DG]3 [DA] | %74
w: love! How|can it|be that|thou, my|God, shoudst *|die for|me?|Long my im-|
 [DB]6 [Gd]2 | (c2 E2) (F2 A2) | [B,G]6 [B,D]2 | (E2 A2) (F2 D2) | G4 (A2 G2) | [DF]4 [^CE]4 | D8 | %81
w: pri- soned|spir- * rit *|lay fast|bound * in *|sin and *|na- ture's|night;|
 D4 [DF]2 [DG]2 | (G4 F2) D2 | [DG]4 [DB]4 | [DA]6 D2 | ([CE]2 [EG]4) [CE]2 | (D2 G4) A2 | %87
w: thine eye dif-|fused * a|quick- n'ing|ray; I|woke * the|dun- * geon|
 [DB]4 [CA]4 | [B,G]8 | [DB]4 [DA]2 D2 | G4 (A2 B2) | (c2 E2) (A2 G2) | (F3 E) D2 D2 | %93
w: flamed with|light;|my chains fell|off, my *|heart * was *|free; * * I|
 (B,2 D2 G2) D2 | (E2 G2 c2) E2 | (F2 A2 d2) F2 | G6 G2 | B4 B4 | A6 A2 | c4 c4 | B6 B2 | e4 e4 | %102
w: rose, * * went|forth, * * and|fol- * * lowed|thee. A-|maz- ing|love! How|can it|be that|thou, my|
 d4 (((c2 A2))) | [DG]4 [CF]4 | G6 G2 | B4 B4 | A6 A2 | c4 c4 | B6 B2 | e4 e4 | d4 ((c2 A2)) | %111
w: God, shoudst *|die for|me. A-|maz- ing|love! How|can it|be that|thou, my|God, shoudst *|
 [Gd]8 | [Fd]8 | [Bg]8- | [Bg]8- | [Bg]8 |] %116
w: die|for|me!|||
V:2
 x8 | x8 | x8 | x8 | x8 | x8 | x8 | x8 | x8 | x8 | x8 | (E2 C2) C4 | x8 | C4 A,4 | D4 D4 | x8 | %16
 D8 | x8 | D6 x2 | x8 | x8 | x8 | D6 E2 | x8 | x8 | x8 | D4 D4 | E4 E4 | D6 A,2 | B,6 B,2 | %30
 C2 E4 E2 | D6 C2 | B,6 z2 | z4 D4 | D2 D2 D2 z2 | z4 E4 | E2 E2 E2 z2 | z2 G2 G2 G2 | G4 E4 | x8 | %40
 x8 | x8 | x8 | (E2 C2) C4 | x8 | C4 A,4 | D4 D4 | x8 | D8 | x8 | D6 x2 | x8 | x8 | x8 | D6 E2 | %55
 x8 | x8 | x8 | D4 D4 | E4 E4 | D6 A,2 | B,6 B,2 | C2 E4 E2 | D6 C2 | B,6 z2 | z4 D4 | %66
 D2 D2 D2 z2 | z4 E4 | E2 E2 E2 z2 | z2 G2 G2 G2 | G4 E4 | x8 | x8 | x8 | x8 | (E2 C2) C4 | x8 | %77
 C4 A,4 | D4 D4 | x8 | D8 | x8 | D6 x2 | x8 | x8 | x8 | D6 E2 | x8 | x8 | x8 | D4 D4 | E4 E4 | %92
 D6 A,2 | B,6 B,2 | C2 E4 E2 | D6 C2 | B,6 z2 | z4 D4 | D2 D2 D2 z2 | z4 E4 | E2 E2 E2 z2 | %101
 z2 G2 G2 G2 | G4 E4 | x8 | B,6 z2 | z4 D4 | D2 D2 D2 z2 | z4 E4 | E2 E2 E2 z2 | z2 G2 G2 G2 | %110
 G4 E4 | x8 | x8 | x8 | x8 | x8 |] %116
V:3
 z8 | z8 | z8 | z8 | z8 | z8 | z8 | z8 | z8 | [G,,D,]4 [B,,G,]3 [D,F,] | G,6 G,2 | A,4 (A,2 F,2) | %12
w: ||||||||||||
 [G,,G,]6 [G,,G,]2 | (G,2 E,2) (A,2 F,2) | [B,,G,]4 (([F,,C]2 [G,,A,]2)) | [A,,A,]4 [A,,G,]4 | %16
w: ||||
 [D,F,]8 | [D,F,]4 [D,A,]2 [D,B,]2 | B,4 A,2 F,2 | [B,,G,]4 [G,,G,]4 | [D,F,]6 [B,,G,]2 | %21
w: |||||
 [C,G,]6 [C,G,]2 | [B,,G,]6 [C,G,]2 | [D,G,]4 [D,F,]4 | [G,,G,]8 | [G,,G,]4 [D,F,]2 [C,F,]2 | %26
w: |||||
 [B,,G,]4 ([A,,F,]2 [G,,G,]2) | G,4 (E,2 A,2) | (A,3 G,) F,2 F,2 | [G,,G,]6 [G,,G,]2 | %30
w: ||||
 [C,G,]6 [C,A,]2 | (A,2 F,4) A,2 | [G,,G,]6 z2 | z4 [G,,G,]4 | [D,F,]2 [D,F,]2 [D,F,]2 z2 | %35
w: |||A-|maz- ing love|
 z4 [A,,E,]4 | B,2 B,2 B,2 z2 | z2 [C,C]2 [E,C]2 [C,C]2 | B,4 (A,2 C2) | [D,B,]4 [D,A,]4 | %40
w: How|can it be|that thou, my|God, * *||
 [G,,G,]8 | [G,,D,]4 [B,,G,]3 [D,F,] | G,6 G,2 | A,4 (A,2 F,2) | [G,,G,]6 [G,,G,]2 | %45
w: |||||
 (G,2 E,2) (A,2 F,2) | [B,,G,]4 (([F,,C]2 [G,,A,]2)) | [A,,A,]4 [A,,G,]4 | [D,F,]8 | %49
w: ||||
 [D,F,]4 [D,A,]2 [D,B,]2 | B,4 A,2 F,2 | [B,,G,]4 [G,,G,]4 | [D,F,]6 [B,,G,]2 | [C,G,]6 [C,G,]2 | %54
w: |||||
 [B,,G,]6 [C,G,]2 | [D,G,]4 [D,F,]4 | [G,,G,]8 | [G,,G,]4 [D,F,]2 [C,F,]2 | %58
w: ||||
 [B,,G,]4 ([A,,F,]2 [G,,G,]2) | G,4 (E,2 A,2) | (A,3 G,) F,2 F,2 | [G,,G,]6 [G,,G,]2 | %62
w: ||||
 [C,G,]6 [C,A,]2 | (A,2 F,4) A,2 | [G,,G,]6 z2 | z4 [G,,G,]4 | [D,F,]2 [D,F,]2 [D,F,]2 z2 | %67
w: |||A-|maz- ing love|
 z4 [A,,E,]4 | B,2 B,2 B,2 z2 | z2 [C,C]2 [E,C]2 [C,C]2 | B,4 ((A,2 C2)) | [D,B,]4 [D,A,]4 | %72
w: How|can it be|that thou, my|God, * *||
 [G,,G,]8 | [G,,D,]4 [B,,G,]3 [D,F,] | G,6 G,2 | A,4 (A,2 F,2) | [G,,G,]6 [G,,G,]2 | %77
w: |||||
 (G,2 E,2) (A,2 F,2) | [B,,G,]4 (([F,,C]2 [G,,A,]2)) | [A,,A,]4 [A,,G,]4 | [D,F,]8 | %81
w: ||||
 [D,F,]4 [D,A,]2 [D,B,]2 | B,4 A,2 F,2 | [B,,G,]4 [G,,G,]4 | [D,F,]6 [B,,G,]2 | [C,G,]6 [C,G,]2 | %86
w: |||||
 [B,,G,]6 [C,G,]2 | [D,G,]4 [D,F,]4 | [G,,G,]8 | [G,,G,]4 [D,F,]2 [C,F,]2 | %90
w: ||||
 [B,,G,]4 ([A,,F,]2 [G,,G,]2) | G,4 (E,2 A,2) | (A,3 G,) F,2 F,2 | [G,,G,]6 [G,,G,]2 | %94
w: ||||
 [C,G,]6 [C,A,]2 | (A,2 F,4) A,2 | [G,,G,]6 z2 | z4 [G,,G,]4 | [D,F,]2 [D,F,]2 [D,F,]2 z2 | %99
w: |||||
 z4 [A,,E,]4 | B,2 B,2 B,2 z2 | z2 [C,C]2 [E,C]2 [C,C]2 | B,4 (((A,2 C2))) | [D,B,]4 [D,A,]4 | %104
w: |||||
 [G,,G,]6 z2 | z4 [G,,G,]4 | [D,F,]2 [D,F,]2 [D,F,]2 z2 | z4 [A,,E,]4 | B,2 B,2 B,2 z2 | %109
w: |A-|maz- ing love|How|can it be|
 z2 [C,C]2 [E,C]2 [C,C]2 | B,4 ((A,2 C2)) | [D,B,]8 | [D,A,]8 | [G,B,]8- | [G,B,]8- | [G,B,]8 |] %116
w: that thou, my|God, * *||||||
V:4
 x8 | x8 | x8 | x8 | x8 | x8 | x8 | x8 | x8 | x8 | z2 D,2 B,,2 G,,2 | C,4 D,4 | x8 | %13
 C,4 (D,2 C,2) | x8 | x8 | x8 | x8 | D,6 C,2 | x8 | x8 | x8 | x8 | x8 | x8 | x8 | x8 | C,4 ^C,4 | %28
 D,6 D,2 | x8 | x8 | D,6 D,2 | x8 | x8 | x8 | x8 | E,2 E,2 E,2 x2 | x8 | G,4 C,4 | x8 | x8 | x8 | %42
 z2 D,2 B,,2 G,,2 | C,4 D,4 | x8 | C,4 (D,2 C,2) | x8 | x8 | x8 | x8 | D,6 C,2 | x8 | x8 | x8 | %54
 x8 | x8 | x8 | x8 | x8 | C,4 ^C,4 | D,6 D,2 | x8 | x8 | D,6 D,2 | x8 | x8 | x8 | x8 | %68
 E,2 E,2 E,2 x2 | x8 | G,4 C,4 | x8 | x8 | x8 | z2 D,2 B,,2 G,,2 | C,4 D,4 | x8 | C,4 (D,2 C,2) | %78
 x8 | x8 | x8 | x8 | D,6 C,2 | x8 | x8 | x8 | x8 | x8 | x8 | x8 | x8 | C,4 ^C,4 | D,6 D,2 | x8 | %94
 x8 | D,6 D,2 | x8 | x8 | x8 | x8 | E,2 E,2 E,2 x2 | x8 | G,4 C,4 | x8 | x8 | x8 | x8 | x8 | %108
 E,2 E,2 E,2 x2 | x8 | G,4 C,4 | x8 | x8 | x8 | x8 | x8 |] %116
V:5
 z2 z2 z2 G2 | B4 B4 | A6 A2 | c4 c4 | [GB]2 [FA]2 [EG]2 [DFB]2 | e4 e4 | d4 c2 A2 | G3 G F4 | %8
 G6 G2 | [B,G]4 [DG]3 [DA] | [DB]6 [Gd]2 | ((c2 E2)) F2 A2 | G6 [B,D]2 | ((E2 A2)) ((F2 [CD]2)) | %14
 G4 ((A2 G2)) | [DF]4 [^CE]4 | D6 D2 | [CD]4 [DF]2 [DG]2 | ((G4 F2)) D2 | G4 B4 | [DA]6 D2 | %21
 [CE]2 [EG]4 [CE]2 | D2 G4 A2 | [DB]4 [CA]4 | [GB][Ac][Bd][Ac] [GB]4 | B4 A2 D2 | %26
 [DG]2 DG [DA]2 [DB]2 | [Ec]2 E2 [EA]2 [EG]2 | [DF]3 E D2 D2 | z3 B, BGDB, | z3 E dcGE | %31
 z3 F dAF z | .[B,DG]2 .[B,DG]2 .[B,DG]2 [B,DG]2 | B4 B4 | A6 A2 | c4 c4 | %36
 [GB]2 [FA]2 [EG]2 [DFB]2 | e4 e4 | d4 c2 A2 | G3 G F4 | G6 G2 | %41
 b/g/d/B/ b/g/d/B/ b/g/d/B/ b/g/d/B/ | b/g/d/B/ b/g/d/B/ b/g/d/B/ b/g/d/B/ | %43
 c'/g/e/c/ c'/g/e/c/ a/f/d/A/ a/f/d/A/ | b/g/d/B/ b/g/d/B/ b/g/d/B/ b/g/d/B/ | %45
 c'/g/e/c/ c'/g/e/c/ a/f/d/A/ a/f/d/A/ | b/g/d/B/ b/g/d/B/ a/f/d/A/ b/g/d/B/ | %47
 a/e/^c/A/ a/e/c/A/ a/e/c/A/ a/e/c/A/ | a/f/d/A/ a/f/d/A/ a/f/d/A/ a/f/d/A/ | %49
 a/f/d/A/ a/f/d/A/ a/f/d/A/ b/g/d/B/ | b/g/d/B/ b/g/d/B/ a/f/d/A/ a/f/d/A/ | %51
 b/g/d/B/ b/g/d/B/ b/g/d/B/ b/g/d/B/ | a/f/d/A/ a/f/d/A/ a/f/d/A/ a/f/d/A/ | %53
 c'/g/e/c/ c'/g/e/c/ c'/g/e/c/ c'/g/e/c/ | b/g/d/B/ b/g/d/B/ b/g/d/B/ b/g/d/B/ | %55
 b/g/d/B/ b/g/d/B/ a/f/d/A/ a/f/d/A/ | b/g/d/B/ b/g/d/B/ b/g/d/B/ b/g/d/B/ | B4 A2 D2 | %58
 [DG]2 DG [DA]2 [DB]2 | [Ec]2 E2 [EA]2 [EG]2 | [DF]3 E D2 D2 | z3 B, BGDB, | z3 E dcGE | %63
 z3 F dAF z | .[B,DG]2 .[B,DG]2 .[B,DG]2 [B,DG]2 | b/g/d/B/ b/g/d/B/ b/g/d/B/ b/g/d/B/ | %66
 a/f/d/A/ a/f/d/A/ a/f/d/A/ a/f/d/A/ | e'/c'/a/e/ e'/c'/a/e/ e'/c'/a/e/ e'/c'/a/e/ | %68
 e'/b/g/e/ e'/b/g/e/ e'/b/g/e/ e'/b/g/e/ | c'/g/e/c/ c'/g/e/c/ c'/g/e/c/ c'/g/e/c/ | %70
 b/g/d/B/ b/g/d/B/ a/e/c/A/ a/e/c/A/ | b/g/d/B/ b/g/d/B/ a/f/d/A/ a/f/d/A/ | %72
 .[Bg]2 .[Bg]2 .[Bg]2 .[Bg]2 | [B,G]4 [DG]3 [DA] | [DB]6 [Gd]2 | (((c2 E2))) F2 A2 | G6 [B,D]2 | %77
 (((E2 A2))) (((F2 [CD]2))) | G4 (((A2 G2))) | [DF]4 [^CE]4 | D6 D2 | [CD]4 [DF]2 [DG]2 | %82
 (((G4 F2))) D2 | G4 B4 | [DA]6 D2 | [CE]2 [EG]4 [CE]2 | D2 G4 A2 | [DB]4 [CA]4 | %88
 [GB][Ac][Bd][Ac] [GB]4 | B4 A2 D2 | [DG]2 DG [DA]2 [DB]2 | [Ec]2 E2 [EA]2 [EG]2 | [DF]3 E D2 D2 | %93
 z3 B, BGDB, | z3 E dcGE | z3 F dAF z | .[B,DG]2 .[B,DG]2 .[B,DG]2 [B,DG]2 | B4 B4 | A6 A2 | %99
 c4 c4 | [GB]2 [FA]2 [EG]2 [DFB]2 | e4 e4 | d4 c2 A2 | G3 G F4 | G6 GA | B4 B4 | A6 A2 | c4 c4 | %108
 [GB]2 [FA]2 [EG]2 [DFB]2 | e4 e4 | d4 c2 A2 | [Gd]8 | [Fd]8 | z4 [Dd]/[Dd]/[Dd] [^D^d]2 | %114
 [Dd]2 [Cc]2 [^A,^A]2 [Dd]2- | [Dd]2 [Dd]/[Dd]/[Dd] [Gg]4 |] %116
V:6
 z8 | G,,D,G,A, B,DGD | [D,F,]2 [E,G,]2 [F,A,]2 C,B,, | A,,E,A,B, CDE z | E,,B,,E,F, G,A,B,F, | %5
 z2 [C,C]2 [E,C]2 [C,C]2 | B,4 A,2 C2 | D,A, D2 D,A,DC | G,,D,G,A, B,D G2 | %9
 [G,,D,]4 [B,,G,]3 [D,F,] | G,6 z2 | C,G, C2 D,,D, F,2 | G,,D,G,A, B,2 z2 | C,,C,E,C,, D,,D,F,D,, | %14
 G,,D,G,B, [F,,F,]2 [G,,G,]2 | A,,E,A,B, z2 A,2 | [D,F,][E,G,][F,A,][E,G,] [D,F,]4 | %17
 [D,F,]4 [D,A,]2 [D,B,]2 | B,4 A,2 F,2 | B,,G, z G, G,,G, z G, | %20
 [D,F,]2 [D,,D,]2 [D,,D,]2 [D,,D,]2 | [C,G,]4 .[C,G,]2 .[C,G,]2 | [B,,G,]4 .[B,,G,]2 .[C,G,]2 | %23
 .[D,G,]2 .[D,G,]2 .[D,F,]2 .[D,F,]2 | [G,,G,]4 .[G,,G,]2 .[G,,G,]2 | G,2 G,2 [D,F,]2 [C,F,]2 | %26
 G,G, z2 [A,,F,]2 [G,,G,]2 | C,G,CC, A,,A,^CD | A,3 G, F,2 F,2 | G,,D, G,6 | C,G, C6 | %31
 D,A, D4 z D | .[G,,G,]2 .[G,,G,]2 .[G,,G,]2 [G,,G,]2 | G,,D,G,A, B,DGD | %34
 [D,F,]2 [E,G,]2 [F,A,]2 C,B,, | A,,E,A,B, CDE z | E,,B,,E,F, G,A,B,F, | z2 [C,C]2 [E,C]2 [C,C]2 | %38
 B,4 A,2 C2 | D,A, D2 D,A,DC | G,,D,G,A, B,D G2 | [G,,G,]4 [G,,G,]3 [A,,A,] | [B,,B,]6 [D,D]2 | %43
 [C,C]2 [E,,E,]2 [F,,F,]2 [A,,A,]2 | [G,,G,]6 [D,,D,]2 | [E,,E,]2 [A,,A,]2 [F,,F,]2 [D,,D,]2 | %46
 [G,,G,]4 [A,,A,]2 [G,,G,]2 | [F,,F,]4 [E,,E,]4 | [D,,D,]2 [D,,D,]2 [D,,D,]2 [D,,D,]2 | %49
 [D,,D,]4 [F,,F,]2 [G,,G,]2 | [G,,G,]4 [F,,F,]2 [D,,D,]2 | [G,,G,]2 [G,,G,]2 [B,,B,]2 [G,,G,]2 | %52
 [D,F,]2 [D,,D,]2 [D,,D,]2 [D,,D,]2 | [E,,E,]2 [G,,G,]4 [E,,E,]2 | [D,,D,]2 [G,,G,]4 [A,,A,]2 | %55
 [B,,B,]4 [A,,A,]4 | [G,,G,]2 [G,,G,]2 [G,,G,]2 [G,,G,]2 | G,2 G,2 [D,F,]2 [C,F,]2 | %58
 G,G, z2 [A,,F,]2 [G,,G,]2 | C,G,CC, A,,A,^CD | A,3 G, F,2 F,2 | G,,D, G,6 | C,G, C6 | %63
 D,A, D4 z D | .[G,,G,]2 .[G,,G,]2 .[G,,G,]2 [G,,G,]2 | [B,,B,]4 [B,,B,]4 | %66
 [D,,D,]2 [E,,E,]2 [F,,F,]2 [D,,D,]2 | [A,,A,]4 [A,,A,]4 | [E,,E,]2 [F,,F,]2 [G,,G,]2 [B,,B,]2 | %69
 [C,C]2 [C,C]2 [E,C]2 [C,C]2 | [G,,G,]4 [C,C]2 [A,,A,]2 | [G,,G,]4 [F,,F,]4 | %72
 .[G,,G,]2 .[G,,G,]2 .[G,,G,]2 .[G,,G,]2 | [G,,D,]4 [B,,G,]3 [D,F,] | G,6 z2 | C,G,CC, D,,D,F,D,, | %76
 G,,D,G,A, B,2 z2 | C,,C,E,C,, D,,D,F,D,, | G,,D,G,B, [F,,F,]2 [G,,G,]2 | A,,E,A,B, z2 A,2 | %80
 [D,F,][E,G,][F,A,][E,G,] [D,F,]4 | [D,F,]4 [D,A,]2 [D,B,]2 | B,4 A,2 F,2 | B,,G, z G, G,,G, z G, | %84
 [D,F,]2 [D,,D,]2 [D,,D,]2 [D,,D,]2 | [C,G,]4 .[C,G,]2 .[C,G,]2 | [B,,G,]4 .[B,,G,]2 .[C,G,]2 | %87
 .[D,G,]2 .[D,G,]2 .[D,F,]2 .[D,F,]2 | [G,,G,]4 .[G,,G,]2 .[G,,G,]2 | G,2 G,2 [D,F,]2 [C,F,]2 | %90
 G,G, z2 [A,,F,]2 [G,,G,]2 | C,G,CC, A,,A,^CD | A,3 G, F,2 F,2 | G,,D, G,6 | C,G, C6 | %95
 D,A, D4 z D | .[G,,G,]2 .[G,,G,]2 .[G,,G,]2 [G,,G,]2 | G,,D,G,A, B,DGD | %98
 [D,F,]2 [E,G,]2 [F,A,]2 C,B,, | A,,E,A,B, CDE z | E,,B,,E,F, G,A,B,F, | z2 [C,C]2 [E,C]2 [C,C]2 | %102
 B,4 A,2 C2 | D,A, D2 D,A,DC | G,,D,G,A, B,D z2 | G,,D,G,A, B,DGD | [D,F,]2 [E,G,]2 [F,A,]2 C,B,, | %107
 A,,E,A,B, CDE z | E,,B,,E,F, G,A,B,F, | z2 [C,C]2 [E,C]2 [C,C]2 | B,4 A,2 C2 | %111
 z2 [D,,D,]2 [G,,G,]2 [D,D]2 | z2 [D,,D,]2 [D,,D,]2 [D,,D,]2 | %113
 z4 [D,,D,]/[D,,D,]/[D,,D,] [^D,,^D,]2 | [D,,D,]2 [C,,C,]2 [^A,,,^A,,]2 [D,,D,]2- | %115
 [D,,D,]2 [D,,D,]/[D,,D,]/[D,,D,] [G,,G,]4 |] %116
V:7
 x8 | x8 | D2 D2 D2 z2 | z7 A | x8 | z2 G2 [Gc]2 G2 | G4 E4 | x8 | B,4 x4 | x8 | x8 | E2 x2 D4 | %12
 B,4 x4 | C4 A,4 | D4 D4 | x8 | x8 | x8 | D6 x2 | D2 D2 D2 D2 | x8 | x8 | D6 E2 | x8 | x8 | %25
 D3 D D2 x2 | x8 | x8 | x8 | x8 | x8 | x8 | x8 | x8 | D2 D2 D2 z2 | z7 A | x8 | z2 G2 [Gc]2 G2 | %38
 G4 E4 | x8 | B,4 x4 | x8 | x8 | x8 | x8 | x8 | x8 | x8 | x8 | x8 | x8 | x8 | x8 | x8 | x8 | x8 | %56
 x8 | D3 D D2 x2 | x8 | x8 | x8 | x8 | x8 | x8 | x8 | x8 | x8 | x8 | x8 | x8 | x8 | x8 | x8 | x8 | %74
 x8 | E2 x2 D4 | B,4 x4 | C4 A,4 | D4 D4 | x8 | x8 | x8 | D6 x2 | D2 D2 D2 D2 | x8 | x8 | D6 E2 | %87
 x8 | x8 | D3 D D2 x2 | x8 | x8 | x8 | x8 | x8 | x8 | x8 | x8 | D2 D2 D2 z2 | z7 A | x8 | %101
 z2 G2 [Gc]2 G2 | G4 E4 | x8 | [B,D]4 x4 | x8 | D2 D2 D2 z2 | z7 A | x8 | z2 G2 [Gc]2 G2 | G4 E4 | %111
 x8 | x8 | x8 | x8 | x8 |] %116
V:8
 x8 | x8 | x8 | x8 | x8 | x8 | G,4 C,4 | x8 | x8 | x8 | z2 D,2 B,,2 G,,G, | x8 | x8 | x8 | x8 | %15
 x8 | x8 | x8 | D,6 C,2 | x8 | x8 | x8 | x8 | x8 | x8 | G,,4 z4 | G,,4 x4 | x8 | D,8 | x8 | x8 | %31
 x8 | x8 | x8 | x8 | x8 | x8 | x8 | G,4 C,4 | x8 | x8 | x8 | x8 | x8 | x8 | x8 | x8 | x8 | x8 | %49
 x8 | x8 | x8 | x8 | x8 | x8 | x8 | x8 | G,,4 z4 | G,,4 x4 | x8 | D,8 | x8 | x8 | x8 | x8 | x8 | %66
 x8 | x8 | x8 | x8 | x8 | x8 | x8 | x8 | z2 D,2 B,,2 G,,G, | x8 | x8 | x8 | x8 | x8 | x8 | x8 | %82
 D,6 C,2 | x8 | x8 | x8 | x8 | x8 | x8 | G,,4 z4 | G,,4 x4 | x8 | D,8 | x8 | x8 | x8 | x8 | x8 | %98
 x8 | x8 | x8 | x8 | G,4 C,4 | x8 | x8 | x8 | x8 | x8 | x8 | x8 | G,4 C,4 | x8 | x8 | x8 | x8 | %115
 x8 |] %116
V:9
 x8 | x8 | x8 | x8 | x8 | x8 | x8 | x8 | D4 x4 | x8 | x8 | x8 | x8 | x8 | x8 | x8 | x8 | x8 | x8 | %19
 x8 | x8 | x8 | x8 | x8 | x8 | x8 | x8 | x8 | x8 | x8 | x8 | x8 | x8 | x8 | x8 | x8 | x8 | x8 | %38
 x8 | x8 | D4 x4 | x8 | x8 | x8 | x8 | x8 | x8 | x8 | x8 | x8 | x8 | x8 | x8 | x8 | x8 | x8 | x8 | %57
 x8 | x8 | x8 | x8 | x8 | x8 | x8 | x8 | x8 | x8 | x8 | x8 | x8 | x8 | x8 | x8 | x8 | x8 | x8 | %76
 x8 | x8 | x8 | x8 | x8 | x8 | x8 | x8 | x8 | x8 | x8 | x8 | x8 | x8 | x8 | x8 | x8 | x8 | x8 | %95
 x8 | x8 | x8 | x8 | x8 | x8 | x8 | x8 | x8 | x8 | x8 | x8 | x8 | x8 | x8 | x8 | x8 | x8 | x8 | %114
 x8 | x8 |] %116

